X:1
T:Title
%%score { ( 1 4 5 ) | ( 2 3 ) }
L:1/8
Q:1/4=113
M:6/8
K:F
V:1 treble nm="Grand Piano"
V:4 treble 
V:5 treble 
V:2 bass 
V:3 bass 
V:1
 [DF]3 [^CE]2 [DF] | [Fd]3- [Fd]2 [Dc] | B2 A cBG | [^CE]3 [DF]3 | F3 G2 A | B3- B2 B | %6
w: C.~Harold~Lowden * *||||||
 [Ed]2 [Ec] .[CEG]2 [B,EB] | c6 | [DF]3 [^CE]2 [DF] | [Fd]3- [Fd]2 [Fd] | d2 G GA=B | %11
w: |||||
 [_Ed]3 [Ec]3 | B3 A2 G | F2 G .[B,FA]2 [Fd] | [EG]3 [_EA]3 | [DB]6 | z3 _e3 | z _ee e3 | %18
w: |||||||
 z3 d3[K:bass] | z[K:treble] dd d3 | z _EE z Ac | [Af]3 z3 | z Dd d2 ^c | [Fd]6 | d3- ddd | %25
w: |||||||
 [Bf]3 [Bf]3 | _e3- eee | B6 | B3 A2 G | F F2- F2 B |[M:7/8] [Ed]2 [Ec] [_Ed]3 [Ec] | %31
w: ||||||
[M:3/4] [DB]6 |] %32
w: |
V:2
 [B,,B,]3 [B,,G,]2 [B,,F,] | [B,,B,]3- [B,,B,]2 [B,,_A,] | [_E,G,_E]2 [E,G,E] [E,G,E]2 [E,B,E] | %3
 [B,,G,]3 [B,,F,]3 | [F,A,_E]3 [F,B,E]2 [^F,CE] | [G,B,D]3- [G,B,D]2 [G,B,D] | %6
 [C,B,]2 [C,B,] z AC, | F3 z3 | [B,,B,]3 [B,,G,]2 [B,,F,] | [B,,B,]3- [B,,B,]2 [B,,B,] | %10
 [G,=B,F]2 [G,B,F] [G,F]-[G,CF][G,DF] | [C,C]3 [C,C]3 | [E,G,^C]3 [E,A,C]2 [E,B,C] | %13
 [F,B,D]2 [F,B,D] z[K:treble] B[K:bass][D,B,] | [C,B,]3 [F,C]3 | [B,,B,]6 | %16
 z[K:treble] [FA][FA] [FA]3 | z [FA][FA] [CFA]3 | z [FB][FB] [FB]3 | z [FB][FB] [FB]3 | %20
 F,,[F,A,][F,A,] z[K:treble] FA | z3 [F,A,_E]3 | B,,[F,B,][F,B,DF] F2 E | B,,[F,B,][F,B,] [F,B,]3 | %24
 [B,F]3- [B,F][B,F][B,F] | [_A,D]3[K:bass] [A,D]3 | [G,B,_E]3- [G,B,E][G,B,E][G,B,E] | [^F,^CE]6 | %28
 [F,DF]3 [F,B,D]2 [F,B,D] | [F,B,D] [F,B,D]2- [F,B,D]2 [G,B,D] | %30
[M:7/8] [C,B,]2 [C,B,] [F,A,]3 [F,A,] |[M:3/4] [B,,B,]6 |] %32
V:3
 x6 | x6 | x6 | x6 | x6 | x6 | z3 .C,3 | [F,A,]6 | x6 | x6 | z3 .=B,3 | x6 | x6 | %13
 z3 .D,3[K:treble][K:bass] | x6 | x6 | x[K:treble] x5 | x6 | x6 | x6 | z3 [F,A,]3[K:treble] | %21
 F,,F,F, z2 G | z3 [F,B,D]3 | x6 | x6 | x3[K:bass] x3 | x6 | x6 | x6 | x6 |[M:7/8] x7 | %31
[M:3/4] x6 |] %32
V:4
 x6 | x6 | x6 | x6 | x6 | x6 | x6 | z3 ._E3 | x6 | x6 | x6 | x6 | x6 | x6 | x6 | x6 | %16
 z _ee z _E=B, | D3 z3 | z dd z[K:bass] D,G, | F,6[K:treble] | .F6 | z [A,_E][A,E] [G_e]2 e | %22
 .[G_e]3 z3 | z DD D3 | x6 | x6 | x6 | x6 | x6 | x6 |[M:7/8] x7 |[M:3/4] x6 |] %32
V:5
 x6 | x6 | x6 | x6 | x6 | x6 | x6 | x6 | x6 | x6 | x6 | x6 | x6 | x6 | x6 | x6 | .F,6 | x6 | %18
 .B,6[K:bass] | x[K:treble] x5 | z3 _E3 | x6 | x6 | x6 | x6 | x6 | x6 | x6 | x6 | x6 |[M:7/8] x7 | %31
[M:3/4] x6 |] %32

